X:762
T:Danse des Paysans, Bergen. [3]
T:peasant dance from the Bj\/orgvin Diocese, Norway
C:John Malchair's Third Collection of Tunes
F:https://www.vwml.org/record/Malchair/3619/p76
F:https://www.vwml.org/record/Malchair/3619/p77
F:www.vwml.org/topics/historic-dance-and-tune-books/Malchair
Z:Eric Conrad Mar 2020
N:In the MS, this is titled as "autre" ("other")
M:3/4
L:1/8
K:Eb
P:A
|: g2 (gf)(ga) | (gf)(ed) (ef) | g(fa)g fe | (de/f/) (ed)(ec) |
g2 (gf)(ga) | (gf) (ed) (ef) | g(eag) (fe) | (de/f/) {f}e4 :|
% concludes on page 77
K:Cm
P:B
|: (eg)e(g f)e | (df) d(fed) | e(d c)e (gc) | c(=Bd)B G2 |
(eg)e(g f)e | (df)d(f ed) | e(d c)e(d=B) | (cd/e/) c4 :|


